X: 11
T:Needels & Twine. BF11.11
M:6/8
Q:120
C:Browne A hand
S:MS11,c1800.,Browne Coll.,Lakes
R:Jig
O:England
A:Lakes
Z:vmp.Chris Partington
K:D
(B/c/)|d2dc2A|BdB AGF|GBG FAF|E2EE2c|!
d2dc2A|BdB AGF|GBG FAF|D2DD2:|!
|:G|FAF FAF|D2dc2A|BdB AFA|E3E2G|!
FAF FAF|D2dc2A|d2B AFA|D3D2:|!
|:g|f2dd2g|f2dd2e|c2A cde|A3A2g|!
f2dd2g|f2dd2e|c2A cde|d3d2:|]
